X:1
T:Transient's Lament, The
C:Ed Yother
C:c. 2005
C:http://edyother.com
M:3/4
L:1/8
R:Waltz
K:Dm
|:A,2 | DF AB AF | AB cB cd | e2 cd ef| c4 d2 |
 fe df ed | cd ef ga | b2 a2 c2 | d4 :|
|:g2 | b4 g2 | a2 f4 | ga gf ed | f4 e2 |
 d4 B2 | cd ef ga | b2 a2 c2 | d4 :|

